X:1
T: New Friends
N:
C:Anon.
S:Flute Tune #29
A:
O:
R:
M:4/4
K:C
I:speed 208
%W: A1
% voice 1 (1 lines, 40 notes)
K:C
M:4/4
L:1/16
c4 G4 c4 e4 |d4 G4 z4 c2 B2 |A2 G2 F2 E2 D4 G4 |E4 C4 z4 G4 |A4 A2 B2 c2 B2 A2 G2 |F4 D4 z4 d2 e2 |d2 c2 B2 c2 A6 G2 |G8 z4 G4 |
%W: A2
% voice 1 (1 lines, 40 notes)
c4 G4 c4 e4 |d4 G4 z4 c2 B2 |A2 G2 F2 E2 D4 G4 |E4 C4 z4 G4 |A4 A2 B2 c2 B2 A2 G2 |F4 D4 z4 d2 e2 |d2 c2 B2 c2 A6 G2 |G8 z4 G4 |
%W: B
% voice 1 (1 lines, 39 notes)
B4 d4 G4 e4 |d4 G4 z4 c2 B2 |A2 c2 B2 c2 d2 c2 B2 A2 |_A4 E4 z4 e2 d2 |c4 A4 c4 f4 |e4 _a4 =a4 A4 |e2 d2 c2 d2 B6 A2 |A8 z4 G4 |
%W: C
% voice 1 (1 lines, 29 notes)
c4 c2 d2 e2 d2 c2 B2 |A4 F8 A4 |d4 d2 e2 f2 e2 d2 c2 |B8 z4 e4 |c4 A4 F4 d4 |B4 G4 E4 c2 B2 |
%W:
% voice 1 (1 lines, 32 notes)
A2 G2 F2 E2 D4 B4 |c4 C4C4 G4 |A2 G2 F2 E2 F4 d4 |B4 G4 z4 c2 B2 |A2 G2 F2 E2 D6 C2 |C8 z4 G4 |||C8C8 ||
